public/library/zkfair-icon-light.svg

<svg width="512" height="512" viewBox="0 0 512 512" fill="none" xmlns="http://www.w3.org/2000/svg">
<path d="M511.812 295.351C511.812 319.939 511.812 344.529 511.812 369.117C508.177 372.367 503.66 372.161 499.269 372.164C386.135 372.223 272.998 372.248 159.864 372.146C144.682 372.133 141.869 369.204 141.843 353.583C141.73 289.609 141.735 225.637 141.84 161.663C141.866 145.685 144.651 142.905 160.629 142.887C246.663 142.789 332.694 142.854 418.728 142.841C436.831 142.838 436.847 142.825 436.844 124.612C436.841 112.637 436.746 100.659 436.862 88.6863C436.926 81.9394 434.157 78.7639 427.32 79.0542C423.864 79.2006 420.388 79.0336 416.922 79.0336C284.565 79.0311 152.205 79.0388 19.8475 79.0259C0.213291 79.0233 -0.0102331 78.9925 0.277523 59.6693C0.562709 40.5078 -0.97627 21.3156 1.13051 2.18245C168.836 2.18245 336.541 2.23127 504.246 2.00003C510.723 1.99233 512.025 3.26667 512 9.74887C511.699 79.7299 511.812 149.713 511.812 219.695C506.941 223.751 501.06 222.703 495.492 222.708C410.782 222.775 326.073 222.749 241.363 222.757C221.708 222.76 221.698 222.772 221.703 242.409C221.706 255.32 221.533 268.233 221.772 281.141C221.95 290.714 223.178 291.831 232.861 292.214C238.84 292.45 244.826 292.291 250.81 292.291C332.371 292.296 413.931 292.27 495.492 292.34C501.06 292.342 506.941 291.292 511.812 295.351Z" fill="black"/>
<path d="M511.997 509.898C344.838 509.898 177.681 509.847 10.5237 510.061C2.77144 510.072 -0.0281178 509.032 0.000212599 500.225C0.37881 385.769 0.3273 271.312 0.0749018 156.856C0.0594489 149.525 1.87775 147.506 9.29258 147.741C27.285 148.309 45.3185 148.271 63.3161 147.771C71.5345 147.545 74.0559 150.037 74.0301 158.38C73.7365 249.695 73.9039 341.011 73.7133 432.326C73.7005 438.415 74.5143 440.832 81.6278 440.822C224.14 440.587 366.652 440.643 509.164 440.635C510.11 440.635 511.055 440.531 512 440.475C511.997 463.613 511.997 486.757 511.997 509.898Z" fill="black"/>
</svg>

<svg xmlns="http://www.w3.org/2000/svg" width="512" height="512" fill="none" viewBox="0 0 512 512"><path fill="#000" d="M511.812 295.351v73.766c-3.635 3.25-8.152 3.044-12.543 3.047-113.134.059-226.271.084-339.405-.018-15.182-.013-17.995-2.942-18.021-18.563a56320 56320 0 0 1-.003-191.92c.026-15.978 2.811-18.758 18.789-18.776 86.034-.098 172.065-.033 258.099-.046 18.103-.003 18.119-.016 18.116-18.229-.003-11.975-.098-23.953.018-35.926.064-6.747-2.705-9.922-9.542-9.632-3.456.147-6.932-.02-10.398-.02-132.357-.003-264.717.005-397.074-.008C.213 79.023-.01 78.993.278 59.669.563 40.508-.976 21.316 1.13 2.182c167.705 0 335.41.05 503.115-.182 6.477-.008 7.779 1.267 7.754 7.749-.301 69.98-.188 139.964-.188 209.946-4.871 4.056-10.752 3.008-16.32 3.013-84.71.067-169.419.041-254.129.049-19.655.003-19.665.015-19.66 19.652.003 12.911-.17 25.824.069 38.732.178 9.573 1.406 10.69 11.089 11.073 5.979.236 11.965.077 17.949.077 81.561.005 163.121-.021 244.682.049 5.568.002 11.449-1.048 16.32 3.011"/><path fill="#000" d="M511.997 509.898c-167.159 0-334.316-.051-501.473.163-7.753.011-10.552-1.029-10.524-9.836.379-114.456.327-228.913.075-343.369-.016-7.331 1.803-9.35 9.218-9.115 17.992.568 36.026.53 54.023.03 8.218-.226 10.74 2.266 10.714 10.609-.293 91.315-.126 182.631-.317 273.946-.012 6.089.801 8.506 7.915 8.496 142.512-.235 285.024-.179 427.536-.187.946 0 1.891-.104 2.836-.16-.003 23.138-.003 46.282-.003 69.423"/></svg>
